%
O1004 (TAPERED BOLT)
G20
(T0101  D=0. CR=0. - ZMIN=-0.2474 - GENERAL TURNING)
(T0202  D=0. CR=0. - ZMIN=-0.3818 - GROOVE TURNING)
(T0404  D=0. CR=0. - ZMIN=-0.3518 - GROOVE TURNING)
G50 S2000
G28 U0.

(FACE2)
T0101
G96 S656 M3
G50 S2000
G0 X0.7 Z0.1969
X0.7 Z0.0466
G1 X0.6131 F0.014
X0.5 Z-0.01
X-0.0312 F0.003
X0.0819 Z0.0466 F0.014
G0 X0.7 Z0.0466
X0.7 Z0.0366
G1 X0.6131 F0.014
X0.5 Z-0.02
X-0.0312 F0.003
X0.0819 Z0.0366 F0.014
G0 X0.7 Z0.0366

(PROFILE4)
G96 S656 M3
G50 S2000
G0 Z0.0562
X0.7 Z0.0562
X0.5939 Z0.0562
G1 X0.5731 F0.014
X0.46 Z-0.0004
Z-0.2474 F0.005
X0.4992
X0.6123 Z-0.1908 F0.014
G0 X0.6123 Z0.0562
X0.5331 Z0.0562
G1 X0.42 Z-0.0004 F0.014
Z-0.2474 F0.005
X0.46
X0.5731 Z-0.1908 F0.014
G0 X0.5731 Z0.0562
X0.4931 Z0.0562
G1 X0.38 Z-0.0004 F0.014
Z-0.2474 F0.005
X0.42
X0.5331 Z-0.1908 F0.014
G0 X0.5331 Z0.0562
X0.4531 Z0.0562
G1 X0.34 Z-0.0004 F0.014
Z-0.2474 F0.005
X0.38
X0.4931 Z-0.1908 F0.014
G0 X0.4931 Z0.0562
X0.4131 Z0.0562
G1 X0.3 Z-0.0004 F0.014
Z-0.2474 F0.005
X0.34
X0.4531 Z-0.1908 F0.014
G0 X0.4531 Z0.0562
X0.3731 Z0.0562
G1 X0.26 Z-0.0004 F0.014
Z-0.1268 F0.005
G3 X0.29 Z-0.1628 R0.0513
G1 Z-0.163
Z-0.2474
X0.3
X0.4131 Z-0.1908 F0.014
G0 X0.4131 Z0.0562
X0.3331 Z0.0562
G1 X0.22 Z-0.0004 F0.014
Z-0.1144 F0.005
G3 X0.28 Z-0.141 R0.0513
G1 X0.3931 Z-0.0844 F0.014
G0 X0.3931 Z0.0562
X0.2931 Z0.0562
G1 X0.18 Z-0.0004 F0.014
Z-0.1118 F0.005
X0.1877
X0.188
G3 X0.24 Z-0.119 R0.0513
G1 X0.3531 Z-0.0625 F0.014
G0 X0.3531 Z0.0562
X0.2531 Z0.0562
G1 X0.14 Z-0.0004 F0.014
Z-0.037 F0.005
G3 X0.143 Z-0.0439 R0.0514
G1 X0.1431 Z-0.0441
X0.1621 Z-0.1117
X0.1877 Z-0.1118
X0.188
G3 X0.2 Z-0.1122 R0.0513
G1 X0.3131 Z-0.0556 F0.014
G0 X0.3131 Z0.0562
X0.2131 Z0.0562
G1 X0.1 Z-0.0004 F0.014
Z-0.0092 F0.005
G3 X0.143 Z-0.0439 R0.0514
G1 X0.1431 Z-0.0441
X0.16 Z-0.1043
X0.2731 Z-0.0477 F0.014
G0 X0.2731 Z0.0562
X0.1921 Z0.0562
G1 X0.184 F0.014
X0.0708 Z-0.0004
Z-0.0022 F0.005
G3 X0.12 Z-0.0183 R0.0514
G1 X0.2331 Z0.0383 F0.014
G0 X0.2331 Z0.0562
X0.1921 Z0.0562
G1 X0.1667 F0.014
X0.0536 Z-0.0004
G3 X0.0908 Z-0.0063 R0.0514 F0.005
G1 X0.204 Z0.0502 F0.014
G0 X0.204 Z0.0366
X0.1779 Z0.0366
G1 X0.0819 F0.014
X-0.0312 Z-0.02
X0.0416 F0.002
X0.0418
G3 X0.1034 Z-0.0468 R0.0314
G1 X0.1035 Z-0.0469
X0.1273 Z-0.1317
X0.1876 Z-0.1318
X0.1878
G3 X0.25 Z-0.1629 R0.0313
G1 Z-0.163
Z-0.2474
X0.3631 Z-0.1908 F0.014
X0.41
G0 X0.7 Z-0.1908
X0.7 Z0.1969
G28 U0.

(GROOVE5)
M1
T0202
G96 S656 M3
G50 S2000
G0 X0.7 Z0.1969
X0.7 Z-0.2517
X0.6598 Z-0.2517
G1 X0.658 F0.014
X0.498
X0.27 F0.001
X0.6147 F0.014
G0 X0.66 Z-0.2517
X0.66 Z-0.2842
G1 X0.5 F0.014
X0.27 F0.001
X0.35 Z-0.2442 F0.014
X0.5674
G0 X0.66 Z-0.2442
X0.66 Z-0.3167
G1 X0.5 F0.014
X0.27 F0.001
X0.35 Z-0.2767 F0.014
X0.5672
G0 X0.66 Z-0.2767
X0.66 Z-0.3493
G1 X0.5 F0.014
X0.2546 F0.001
X0.2709 F0.014
X0.3509 Z-0.3093
X0.43
G0 X0.66 Z-0.3093
X0.66 Z-0.3818
G1 X0.5 F0.014
X0.0992 F0.001
X0.2699 F0.014
X0.3499 Z-0.3418
X0.3831
G0 X0.3831 Z-0.1951
G1 X0.27 Z-0.2517 F0.014
Z-0.3282 F0.001
G3 Z-0.3287 R0.018
X0.2039 Z-0.3618 R0.0341
X0.2027 R0.018
G1 X0.0992
Z-0.3818
X0.25
Z-0.3282
Z-0.3284
G3 X0.2033 Z-0.3518 R0.0241
G1 X0.2027
X0.0992
Z-0.3818
X0.2439 Z-0.3476 F0.014
X0.3452
G0 X0.7 Z-0.3476
X0.7 Z0.1969
G28 U0.

(PART3)
M1
T0404
G96 S656 M3
G50 S2000
G0 X0.7 Z0.1969
X0.7 Z-0.3518
G1 X0.1 F0.002
X-0.016 F0.0005
X0.7 F0.002
G0 X0.7 Z0.1969

G28 U0. W0.
M30
%
